X:042
L:1/16
M:2/4
K:D
.eAAA .fAAA | .gAAA .fAAA | eAfA gAfA | edcB AGFE |
.Dddd .ceee | .dfff .eggg | fgaf bgec | d2d2 d2 :|]

